X: 15
T:Kidson's No.1 Hornpipe,aka. FK.15
M:C
L:1/8
Q:160
C:"MS 42 p.29"
S:Kidson's H'pipe MS,early 20thC.
R:Hornpipe
O:England
A:Leeds
N:No name in MS.My title.A better version of this tune appears in Kidsons
N:country
N:dance tune book.CGP
Z:vmp.John Bagnall
K:Em
G2 | BGBG EFGA | B2G2G2 d2 | efge dBAG | B2 A2 A2 G2 |!
 BABG EFGA | B2 G2 G2 d2 | efge dBAG | B2 "*"E2 E2 :|:!
g2 | bgbg efga | b2 a2 a2 g2 | bgbg efga | b2 a2 a2 g2 |!
 agag bagf | gfge edcB | ABcd ecBA | G2 E2 E2|]
%Note in Ms either below this bar or above bar 6 of second strain: "sic"
